X: 15301
T: Girls Of Belfast, The
R: jig
M: 6/8
K: Amixolydian
A3 Bcd|efg e2 d|cAA ABc|deB G3|
A3 Bcd|efg e2d|cAA dBG|AAA A3:|
e2e efg|ded d3|cAA ABc|deB G3|
A3 Bcd|efg e2d|cAA dBG|AAA A3:|

